!!!COA:	Josquin des Prez
!!!CDT:	~1450-1521/08/27
!!!OTL:	Fors seulement II
!!!AGN:	Chanson
!!!SCT:	NJE 28.16
!!!SCA:	New Josquin Edition 28.16
!!!voices:	4
**kern	**kern	**kern	**kern
*staff4	*staff3	*staff2	*staff1
*Ivox	*Ivox	*Ivox	*Ivox
*I"Bassus	*I"Tenor	*I"Altus	*I"Superius
*I'B	*I'T	*I'A	*I'S
*clefF4	*clefGv2	*clefG2	*clefG2
*k[]	*k[]	*k[]	*k[]
*M2/1	*M2/1	*M2/1	*M2/1
*met(C|)	*met(C|)	*met(C|)	*met(C|)
=1-	=1-	=1-	=1-
1D	0r	0r	0a
2D\	.	.	.
2D\	.	.	.
=2	=2	=2	=2
1.D	1A	0r	1a
.	2A/	.	1a
4C/	2A/	.	.
4BB/	.	.	.
=3	=3	=3	=3
0AA	1.A	1a	[0cc
.	.	2a/	.
.	4G/	2a/	.
.	4F/	.	.
=4	=4	=4	=4
1AA	1E	1.a	1cc]
1AA	2r	.	1cc
.	2A/	4g/	.
.	.	4f/	.
=5	=5	=5	=5
2r	2c\	1e	1ee
2AA/	2c\	.	.
2C/	2.G/	1e	1ee
2C/	.	.	.
.	4A/	.	.
=6	=6	=6	=6
2.GG/	2B\	1g	1.dd
.	2G/	.	.
4GG/	.	.	.
2GG/	2.B\	1g	.
2GG/	.	.	4cc\
.	4c\	.	4b\
=7	=7	=7	=7
0D	1d	2f/	1a
.	.	4e/	.
.	.	4d/	.
.	2r	1f	1a
.	2A/	.	.
=8	=8	=8	=8
0r	1c	1e	1g
.	1d	[1d	1f
=9	=9	=9	=9
0r	1G	1d]	0e
.	1A	1c#i	.
=10	=10	=10	=10
0r	2.D/	2d/	1.d
.	.	4f/	.
.	4E/	4g/	.
.	4F/	4a/	.
.	4G/	4b-i\	.
.	4A/	[2a/	4c/
.	4B\	.	4B/
=11	=11	=11	=11
1r	4c\	2a/]	0A
.	4A/	.	.
.	1d	4g/	.
.	.	4f/	.
1A	.	1e	.
.	2c#i\	.	.
=12	=12	=12	=12
2.B-\	1d	1d	0r
4A\	.	.	.
2F\	2r	2r	.
[2G\	2d\	[2b-\	.
=13	=13	=13	=13
4G\]	1d	4b-\]	0r
4F\	.	4a/	.
2D\	.	1a	.
1E	1B	.	.
.	.	2g/	.
=14	=14	=14	=14
2.F\	4A/	1a	0r
.	4G/	.	.
.	4A/	.	.
4E\	4B\	.	.
2C/	4c\	1r	.
.	4A/	.	.
[2D\	[2B\	.	.
=15	=15	=15	=15
4D\]	4B\]	1r	0r
4C/	4A/	.	.
2AA/	1A	.	.
1BB	.	2r	.
.	2G#i/	2b\	.
=16	=16	=16	=16
1AA	4A/	2.cc\	0r
.	4G/	.	.
.	4A/	.	.
.	4B\	4b\	.
1r	2c\	2g/	.
.	2G/	[2b\	.
=17	=17	=17	=17
1r	2B\	4b\]	0r
.	.	4a/	.
.	2c\	1g	.
2r	1A	.	.
2A\	.	2f#i/	.
=18	=18	=18	=18
2.B-\	2.G/	1g	[0d
4A\	4F/	.	.
2F\	2D/	2r	.
[2G\	[2d\	[2b-i\	.
=19	=19	=19	=19
4G\]	4d\]	4b-\]	1d]
4F\	4e\	4a/	.
2D\	2f\	1a	.
1E	1e	.	1B
.	.	2g/	.
=20	=20	=20	=20
2.F\	1c	1a	0A
4E\	.	.	.
2C/	2r	2r	.
[2D\	2A/	[2f/	.
=21	=21	=21	=21
4D\]	2B\	4f/]	0r
4C/	.	4e/	.
2AA/	2.A/	4d/	.
.	.	4c/	.
1BB	.	1d	.
.	4G#i/	.	.
.	4G#i/	.	.
.	4F#i/	.	.
=22	=22	=22	=22
1AA	2.A/	2.c/	1r
.	4B\	4d/	.
1r	2c\	2e/	1A
.	2A/	[2f/	.
=23	=23	=23	=23
1r	2d\	2f/]	1B
.	2G/	2g/	.
1A	1A	1e	1c
=24	=24	=24	=24
2.B-\	1r	1d	0d
4A\	.	.	.
2F\	1d	2r	.
[2G\	.	[2b-\	.
=25	=25	=25	=25
4G\]	2.d\	4b-\]	0r
4F\	.	4a/	.
2D\	.	2f/	.
.	4c\	.	.
1E	4B\	2.g/	.
.	4A/	.	.
.	[2B\	.	.
.	.	4f/	.
=26	=26	=26	=26
2r	4B\]	2d/	0g
.	4G/	.	.
2E\	2c\	2.e/	.
1E	1B	.	.
.	.	4d/	.
.	.	2B/	.
=27	=27	=27	=27
0AA	2r	2.c/	1a
.	2A/	.	.
.	.	4d/	.
.	2.c\	2e/	1a
.	.	2f/	.
.	4d\	.	.
=28	=28	=28	=28
1r	2e\	2e/	2.cc\
.	2f\	2a/	.
.	.	.	4dd\
2r	2e\	2g/	2ee\
2D\	2A/	[2a/	[2ff\
=29	=29	=29	=29
2F\	2r	2a/]	4ff\]
.	.	.	4ee\
2G\	2B\	4g/	2dd\
.	.	4f/	.
1A	1c	1e	2.cc\
.	.	.	4b\
=30	=30	=30	=30
0D	2B\	1r	1dd
.	1A	.	.
.	.	1d	[1a
.	4G/	.	.
.	4F/	.	.
=31	=31	=31	=31
0AA	0A	1c	2a/]
.	.	.	4g/
.	.	.	4f/
.	.	1c	1e
=32	=32	=32	=32
1r	1F	1d	1.d
1D	[1A	[1f	.
.	.	.	4c/
.	.	.	4B/
=33	=33	=33	=33
1D	2A/]	1f]	0A
.	2B\	.	.
1C	1c	1e	.
=34	=34	=34	=34
1F	1r	2.d/	1a
.	.	8c/L	.
.	.	8B/J	.
1A	1c	4A/	1cc
.	.	4F/	.
.	.	[2f/	.
=35	=35	=35	=35
0G	1d	2f/]	0b
.	.	4e/	.
.	.	4d/	.
.	1B	1e	.
=36	=36	=36	=36
0F	1.c	0f	0a
.	4B\	.	.
.	4A/	.	.
=37	=37	=37	=37
1E	4G/	0r	1r
.	4A/	.	.
.	4B\	.	.
.	4c\	.	.
1F	2A/	.	1a
.	2c\	.	.
=38	=38	=38	=38
1G	2B\	1r	0e
.	1d	.	.
1A	.	1a	.
.	2c#i\	.	.
=39	=39	=39	=39
1D	1d	2.a/	1f
.	.	4g/	.
2r	1r	4a/	[1d
.	.	4g/	.
[2G\	.	[2b\	.
=40	=40	=40	=40
2G\]	0r	4b\]	2d/]
.	.	4a/	.
2F\	.	2cc\	2A/
2G\	.	2b\	2B/
[2F\	.	[2a/	2c/
=41	=41	=41	=41
2F\]	2r	2a/]	2d/
2E\	2G/	2g/	2e/
2.F\	1c	1a	1A
4E\	.	.	.
=42	=42	=42	=42
2D\	2.F/	0r	1.a
2C/	.	.	.
.	4E/	.	.
2D\	2F/	.	.
2GG/	2G/	.	2b\
=43	=43	=43	=43
2AA/	4F/	0r	1cc
.	4E/	.	.
2C/	1A	.	.
1BB	.	.	1dd
.	2G#i/	.	.
=44	=44	=44	=44
0AA	2A/	1a	1.cc
.	1.c	.	.
.	.	[1cc	.
.	.	.	[2a/
=45	=45	=45	=45
0r	1.A	2cc\]	1a]
.	.	1.a	.
.	.	.	1f
.	[2F/	.	.
=46	=46	=46	=46
1r	2F/]	1f	1a
.	1f	.	.
1C	.	[1cc	1g
.	2e\	.	.
=47	=47	=47	=47
2.F\	1f	2cc\]	0f
.	.	1a	.
4G\	.	.	.
4A\	1r	.	.
4F\	.	.	.
[2B-i\	.	[2dd\	.
=48	=48	=48	=48
4B-\]	0r	4dd\]	1b-i
4A\	.	4cc\	.
4G\	.	4b-i\	.
4F\	.	4a/	.
2.E\	.	1g	1b-
4D\	.	.	.
=49	=49	=49	=49
2.F\	2.A/	1f	1a
4G\	4B-i\	.	.
4A\	4c\	1r	1f
4F\	4A/	.	.
[2B-i\	[2d\	.	.
=50	=50	=50	=50
4B-\]	4d\]	1r	1r
4A\	4c\	.	.
4G\	4B-i\	.	.
4F\	4A/	.	.
2.E\	1G	1b-i	1g
4D\	.	.	.
=51	=51	=51	=51
1.F	1F	2.a/	0a
.	.	4b-i\	.
.	2r	4cc\	.
.	.	4a/	.
2D\	2A/	[2dd\	.
=52	=52	=52	=52
1BB-	2B-\	4dd\]	1g
.	.	4cc\	.
.	2d\	4b-i\	.
.	.	4a/	.
1C	1c	1g	1e
=53	=53	=53	=53
1r	2A/	1f	[0f
.	2.B-i\	.	.
1D	.	1r	.
.	4A/	.	.
.	[2d\	.	.
=54	=54	=54	=54
1BB-i	4d\]	0r	1f]
.	4c\	.	.
.	4B-i\	.	.
.	4A/	.	.
1C	1G	.	1e
=55	=55	=55	=55
0D	1F	0a	1r
.	2r	.	[1f
.	2D/	.	.
=56	=56	=56	=56
1r	2.F/	1a	0f_
.	4G/	.	.
1D	2A/	1a	.
.	2F/	.	.
=57	=57	=57	=57
1BB-i	2.B-i\	0b-	1f]
.	4c\	.	.
1GG	2.d\	.	1d
.	4e\	.	.
=58	=58	=58	=58
1D	2.f\	0a	0A
.	4e\	.	.
2.F\	2d\	.	.
.	2c\	.	.
4E\	.	.	.
=59	=59	=59	=59
2D\	2B\	1r	0r
2C/	1A	.	.
1BB	.	1d	.
.	2G#i/	.	.
=60	=60	=60	=60
1AA	1A	2.c/	0A
.	.	4d/	.
2r	2r	2e/	.
2A\	2F/	2f/	.
=61	=61	=61	=61
2.B-\	2.G/	2d/	[0d
.	.	2a/	.
4A\	4F/	.	.
2G\	2G/	2.b-i\	.
2F\	2A/	.	.
.	.	4a/	.
=62	=62	=62	=62
2G\	2.B-i\	2g/	0d_
2A\	.	2f/	.
.	4A/	.	.
2.B-i\	2G/	2g/	.
.	2F/	2a/	.
4A\	.	.	.
=63	=63	=63	=63
2G\	2G/	2.b-i\	0d]
2F\	2A/	.	.
.	.	4a/	.
2G\	2B-i\	4g/	.
.	.	4f/	.
2D\	2A/	[2a/	.
=64	=64	=64	=64
1E	1e	2a/]	1B
.	.	2g/	.
1F	1c	1a	1A
=65	=65	=65	=65
1C	0e	1g	0c
2r	.	1cc	.
2AA/	.	.	.
=66	=66	=66	=66
2.C/	2r	2c/	0e
.	2E/	2.e/	.
4D\	.	.	.
2.E\	2.G/	.	.
.	.	4f/	.
.	.	[2g/	.
4F\	4A/	.	.
=67	=67	=67	=67
2.G\	2.B\	4g/]	0d
.	.	4f/	.
.	.	2.d/	.
4F\	4c\	.	.
2.D\	2.d\	.	.
.	.	4e/	.
.	.	[2f/	.
4E\	4c\	.	.
=68	=68	=68	=68
2.F\	2.A/	4f/]	0a
.	.	4g/	.
.	.	2.a/	.
4G\	4B\	.	.
1A	4c\	.	.
.	4d\	4b\	.
.	[2e\	[2cc\	.
=69	=69	=69	=69
1AA	2e\]	4cc\]	0e
.	.	4b\	.
.	4d\	1a	.
.	4c\	.	.
1E	1B	.	.
.	.	2g#i/	.
=70	=70	=70	=70
2.F\	[0Al	[0al	[0Al
4E\	.	.	.
2C/	.	.	.
[2D\	.	.	.
=71	=71	=71	=71
2D\]	0A]	0a]	0A]
4C/	.	.	.
4BB/	.	.	.
1AAl	.	.	.
==	==	==	==
*-	*-	*-	*-
!!!RDF**kern: l=long note in original notation
!!!RDF**kern: i=editorial accidental
!!!ENC:	Jesse Rodin
!!!END:	2015/09/08/
!!!EED:	Jesse Rodin
!!!EEV:	2015/09/08/
!!attribution-level@Jos: 4 (questionable)
!!!ONB:	Translated from MusicXML and edited on 2015/09/08/ by Craig Sapp
!!muse2ps: C^@{COA}?\n@{SCT}^v90,100,90,150i2I150Q16
